X: 340
T: Judy's Reel
T: the Maid Behind the Bar
O: arr. Elke Baker
R: reel
S: printed copy from Potomac Valley Scottish Fiddle Club, in Concord Slow Scottish Session collection
Z: 2015 John Chambers <jc:trillian.mit.edu>
M: C|
L: 1/8
K: D
G |\
"D"FAAB AFED | "D"FAAB A2de |\
"Bm"fBBA "G"Bcde | "D"fdef "A"edcA |\
"D"FAAB AFED |
"D"FAAB ABde |\
"Bm"fBBA "G"BcdB | "A"AFEF "D"D3 :|\
|: g |\
"D"fgab afde | "D"fdad bdad |
"Em"efga beef | "Em"gebe "A"gfeg |\
"D"fgaf bfaf | "D"defd "A"efde |\
"G"fBBA BcdB | "A"AFEF "D"D3 :|

%%sep 1 1 500

